packages/kaspersky-hexa-ui-icons/src/iconsSVGs/28x20/FlagKh.svg

<svg width="28" height="20" viewBox="0 0 28 20" fill="none" xmlns="http://www.w3.org/2000/svg">
<g clip-path="url(#clip0_5138_1121)">
<rect width="28" height="20" rx="2" fill="white"/>
<mask id="mask0_5138_1121" style="mask-type:luminance" maskUnits="userSpaceOnUse" x="0" y="0" width="28" height="20">
<rect width="28" height="20" rx="2" fill="white"/>
</mask>
<g mask="url(#mask0_5138_1121)">
<path fill-rule="evenodd" clip-rule="evenodd" d="M0 5.33333H28V0H0V5.33333Z" fill="#0F3EB6"/>
<path fill-rule="evenodd" clip-rule="evenodd" d="M0 20H28V14.6667H0V20Z" fill="#0F3EB6"/>
<path fill-rule="evenodd" clip-rule="evenodd" d="M0 14.6667H28V5.33334H0V14.6667Z" fill="#ED1A3C"/>
<path fill-rule="evenodd" clip-rule="evenodd" d="M12 8.72722H13.3333V8C13.3333 7.63181 13.6318 7.33334 14 7.33334C14.3682 7.33334 14.6667 7.63181 14.6667 8V8.72722H16V10H12V8.72722ZM17.3333 8C16.9651 8 16.6667 8.29848 16.6667 8.66667V10H18V8.66667C18 8.29848 17.7015 8 17.3333 8ZM11.3333 13.3333V10.6667H10L8.66667 13.3333H11.3333ZM16 10.6667H12V13.3333H16V10.6667ZM16.6667 10.6667H18L19.3333 13.3333H16.6667V10.6667ZM10.6667 8C10.2985 8 10 8.29848 10 8.66667V10H11.3333V8.66667C11.3333 8.29848 11.0349 8 10.6667 8Z" fill="white"/>
</g>
</g>
<defs>
<clipPath id="clip0_5138_1121">
<rect width="28" height="20" fill="white"/>
</clipPath>
</defs>
</svg>

<svg xmlns="http://www.w3.org/2000/svg" width="28" height="20" fill="none" viewBox="0 0 28 20"><g clip-path="url(#a)"><rect width="28" height="20" fill="#fff" rx="2"/><mask id="b" width="28" height="20" x="0" y="0" maskUnits="userSpaceOnUse" style="mask-type:luminance"><rect width="28" height="20" fill="#fff" rx="2"/></mask><g fill-rule="evenodd" clip-rule="evenodd" mask="url(#b)"><path fill="#0f3eb6" d="M0 5.333h28V0H0zM0 20h28v-5.333H0z"/><path fill="#ed1a3c" d="M0 14.6667h28V5.3333H0z"/><path fill="#fff" d="M12 8.7272h1.3333V8a.6667.6667 0 0 1 1.3334 0v.7272H16V10h-4zM17.3333 8a.6666.6666 0 0 0-.6666.6667V10H18V8.6667A.6667.6667 0 0 0 17.3333 8m-6 5.3333v-2.6666H10l-1.3333 2.6666zM16 10.6667h-4v2.6666h4zm.6667 0H18l1.3333 2.6666h-2.6666zm-6-2.6667A.6667.6667 0 0 0 10 8.6667V10h1.3333V8.6667A.6666.6666 0 0 0 10.6667 8"/></g></g><defs><clipPath id="a"><path fill="#fff" d="M0 0h28v20H0z"/></clipPath></defs></svg>
